modules/coreui-icons-free/icons/copy.svg

<!-- Generated by IcoMoon.io -->
<svg version="1.1" xmlns="http://www.w3.org/2000/svg" width="24" height="24" viewBox="0 0 24 24">
<title>copy</title>
<path d="M17.625 21.75h-12.375v-15.375h1.5v-1.5h-3v18.375h15.375v-3h-1.5v1.5z"></path>
<path d="M16.811 0.75h-8.561v18h15v-11.561zM21.75 7.811v0.064h-5.625v-5.625h0.064zM9.75 17.25v-15h4.875v7.125h7.125v7.875z"></path>
</svg>

<svg xmlns="http://www.w3.org/2000/svg" width="24" height="24" viewBox="0 0 24 24"><path d="M17.625 21.75H5.25V6.375h1.5v-1.5h-3V23.25h15.375v-3h-1.5v1.5z"/><path d="M16.811.75H8.25v18h15V7.189zm4.939 7.061v.064h-5.625V2.25h.064zm-12 9.439v-15h4.875v7.125h7.125v7.875z"/></svg>
